!!!COM: Bach, Johann Sebastian
!!!CDT: 1685/3//-1750/7/28/
!!!OTL@@DE: Ich dank' dir, lieber Herre
!!!AGN: 4-Part Chorale
!!!SCT: BH 272
!!!SCT: BWV 348
**harm	**root	**kern	**kern	**kern	**kern
!	!	!bass	!tenor	!alto	!soprno
*	*Iorgan	*Iorgan	*Iorgan	*Iorgan	*Iorgan
*M4/4	*M4/4	*M4/4	*M4/4	*M4/4	*M4/4
*met(c)	*met(c)	*met(c)	*met(c)	*met(c)	*met(c)
*MM60	*MM60	*MM60	*MM60	*MM60	*MM60
*k[b-e-a-]	*k[b-e-a-]	*k[b-e-a-]	*k[b-e-a-]	*k[b-e-a-]	*k[b-e-a-]
*E-:	*E-:	*E-:	*E-:	*E-:	*E-:
*>[A,B,B1,B,B2]	*>[A,B,B1,B,B2]	*>[A,B,B1,B,B2]	*>[A,B,B1,B,B2]	*>[A,B,B1,B,B2]	*>[A,B,B1,B,B2]
*>A	*>A	*>A	*>A	*>A	*>A
I	4BB-	8e-	4g	4b-	4ee-
.	.	8d	.	.	.
=1	=1	=1	=1	=1	=1
vi	4GG	4c	8g	4cc	4ee-
.	.	.	8a-	.	.
V7b/IV	4BB-	4G	4b-	4dd-	4ee-
=!|:	=!|:	=!|:	=!|:	=!|:	=!|:
*>B	*>B	*>B	*>B	*>B	*>B
IV	4EE-	4A-	8a-	4cc	4ee-
.	.	.	8g	.	.
Vb/V	4CC	4A	4f	4cc	4ff
=2	=2	=2	=2	=2	=2
v	4FF	4B-	4f	8cc	4dd-
.	.	.	.	4b-	.
V7/V	4CC	4F	4e-	.	4cc
.	.	.	.	8a	.
V;	4FF;	4BB-;	4d;	4b-;	4b-;
Vb	4FF	4D	4f	4b-	4ff
=3	=3	=3	=3	=3	=3
I	4BB-	4E-	8e-	4b-	4gg
.	.	.	8d	.	.
V/V	4CC	4F	4c	4a	4ff
IVb/V	4BB-	4G	4B-	4b-	4ee-
Vb/V	4CC	4A	4f	[4f	8dd
.	.	.	.	.	8cc
=4	=4	=4	=4	=4	=4
I/V	4FF	4B-	4f	8f]	4dd
.	.	.	.	4b-	.
V7/V	4CC	4F	4e-	.	4cc
.	.	.	.	8a	.
I/V;	4FF;	4BB-;	4d;	4f;	4b-;
*>B1	*>B1	*>B1	*>B1	*>B1	*>B1
IVb/V	4BB-	4G	4e-	4b-	4ee-
=1	=1	=1	=1	=1	=1
IV	4EE-	4A-	8e-	4cc	4ee-
.	.	.	8f	.	.
I	4BB-	4E-	4g	4b-	4ee-
=:|!	=:|!	=:|!	=:|!	=:|!	=:|!
*>B2	*>B2	*>B2	*>B2	*>B2	*>B2
IVb/V	8BB-	4G	8g	8ee-	4bb-
iii7	8DD	.	8f	8dd	.
=5	=5	=5	=5	=5	=5
IVb	4EE-	4c	8e-	4cc	4aa-
.	.	.	8f	.	.
I	4BB-	4e-	8g	8b-	4gg
.	.	.	8a-	8cc	.
V7d	4FF	4A-	4b-	4dd	4ff
Vb/IV	4BB-	4G	4b-	8ee-	4ee-
.	.	.	.	8dd-	.
=6	=6	=6	=6	=6	=6
IV	4EE-	4A-	2e-	4cc	8ee-
.	.	.	.	.	8ff
I	4BB-	4E-	.	4b-	4gg
V;	4FF;	4B-;	4d;	4b-;	4ff;
viiob/ii	4BB	4G	4e	4b-	4gg
!!linebreak: 2
=7	=7	=7	=7	=7	=7
ii	4CC	4F	4.f	4a-	4aa-
viio7b/IV	8DD	8B-	.	8dd-	4gg
V/ii	8GG	8c	8e	[8cc	.
vb	4FF	4d-	4f	8cc]	4ff
.	.	.	.	8b-	.
V/ii	4GG	4c	4g	4cc	4ee
=8	=8	=8	=8	=8	=8
ii;	2.CC;	2.F;	2.a-;	2.cc;	2.ff;
V7d	4FF	4A-	4d	4f	4b-
=9	=9	=9	=9	=9	=9
Ib	4BB-	4G	4e-	4b-	4ee-
ii	4CC	4F	4A-	8cc	4ff
.	.	.	.	8dd	.
I	4BB-	4E-	8B-	4ee-	4gg
.	.	.	8b-	.	.
-viiob/iii	4CC	4F	[4a-	8dd	4aa-
.	.	.	.	8cc	.
=10	=10	=10	=10	=10	=10
iii	4DD	4G	8a-]	4b-	4bb-
.	.	.	8g	.	.
iib	8CC	4A-	8f	4cc	8aa-
IV7	8EE-	.	8e-	.	8gg
V;	4FF;	4B-;	4b-;	4dd;	4ff;
IVb	4EE-	4c	4e-	4ee-	4aa-
=11	=11	=11	=11	=11	=11
V7c/IV	4BB-	4B-	[4e-	4dd-	4gg
iib	4CC	2A-	8e-]	4cc	4ff
.	.	.	8f	.	.
V7d	4FF	.	4d	4b-	4bb-
Ib	8BB-	8G	4e-	8b-	8ee-
ii7b	8CC	8A-	.	8cc	8ff
=12	=12	=12	=12	=12	=12
Ic	4BB-	4B-	4e-	8b-	4gg
.	.	.	.	[8a-	.
V7	4FF	4BB-	4d	8a-]	4ff
.	.	.	.	8g	.
I;	4BB-;	4E-;	4B-;	4g;	4ee-;
==	==	==	==	==	==
*-	*-	*-	*-	*-	*-
!!!ONB: m.10, b.4 changed from Ib to IVb
!!chor2scor: -l 2 -s 0.6 -o %b.pmx
!!!YEC: Copyright 1994, David Huron
!!!YEC: Changes/Additions 2001 by Craig Stuart Sapp
!!!YEN: United States of America
!!!SMA: 371 Bach Chorales, edited by Ludwig Erk, C.F. Peters
!!!PDT: 1850, 1865
!!!ONB: Harmony and Root analysis done manually
